pype/resources/ftrack/action_icons/MultipleNotes.svg

<?xml version="1.0" ?>
<svg enable-background="new 0 0 512 512" id="Layer_1" version="1.1" viewBox="0 0 512 512" xml:space="preserve" xmlns="http://www.w3.org/2000/svg" xmlns:xlink="http://www.w3.org/1999/xlink">
  <g>
    <g>
      <linearGradient gradientUnits="userSpaceOnUse" id="SVGID_1_" x1="-0.0000027" x2="512" y1="256" y2="256">
        <stop offset="0" style="stop-color:#ffd34e"/>
        <stop offset="1" style="stop-color:#dfa32e"/>
      </linearGradient>
      <circle cx="256" cy="256" fill="url(#SVGID_1_)" r="256"/>
      <linearGradient gradientUnits="userSpaceOnUse" id="SVGID_2_" x1="42.6666641" x2="469.3333435" y1="256.0005188" y2="256.0005188">
        <stop offset="0" style="stop-color:#dfa32e"/>
        <stop offset="1" style="stop-color:#ffd34e"/>
      </linearGradient>
      <path d="M256,469.3338623c-117.6314697,0-213.3333435-95.7023926-213.3333435-213.3333435    c0-117.6314545,95.7018661-213.333313,213.3333435-213.333313c117.6357422,0,213.3333435,95.7018661,213.3333435,213.333313    C469.3333435,373.6314697,373.6357422,469.3338623,256,469.3338623z" fill="url(#SVGID_2_)"/>
    </g><g><path d="M278.319458,234.7162628H156.2111969c-6.7440033,0-12.2111969,5.4677429-12.2111969,12.212265v81.8735962    c0,6.7429504,5.4671936,12.2106628,12.2111969,12.2106628h16.5359955l0.2293396,26.0400085l39.5781403-26.0400085h65.7647858    c6.7440186,0,12.2106628-5.4677124,12.2106628-12.2106628v-81.8735962    C290.5301208,240.1840057,285.0634766,234.7162628,278.319458,234.7162628z M180.6330719,259.4090576h73.2639923v10h-73.2639923    V259.4090576z M253.8970642,317.2357483h-73.2639923v-10h73.2639923V317.2357483z M269.1605225,293.3247986H165.3690643v-10    h103.7914581V293.3247986z" opacity="0.3"/><path d="M371.7893372,160.9472046H249.6810608c-6.743988,0-12.2111969,5.4661255-12.2111969,12.2106628v51.5583954    h40.848526c12.2458801,0,22.211731,9.9664001,22.211731,22.212265v20.3141479h14.915741l39.5776062,26.0394592    l0.2298584-26.0394592h16.5360107c6.7434692,0,12.210144-5.4677429,12.210144-12.2112122v-81.8735962    C383.9994812,166.4133301,378.5328064,160.9472046,371.7893372,160.9472046z M347.366394,243.4618683h-38.7258606v-10h38.7258606    V243.4618683z M362.6298828,219.5503998H258.8384094v-10h103.7914734V219.5503998z M362.6298828,195.6394653H258.8384094v-10    h103.7914734V195.6394653z" opacity="0.3"/></g><g><path d="M270.319458,226.7162628H148.2111969c-6.7440033,0-12.2111969,5.4677429-12.2111969,12.212265v81.8735962    c0,6.7429504,5.4671936,12.2106628,12.2111969,12.2106628h16.5359955l0.2293396,26.0400085l39.5781403-26.0400085h65.7647858    c6.7440186,0,12.2106628-5.4677124,12.2106628-12.2106628v-81.8735962    C282.5301208,232.1840057,277.0634766,226.7162628,270.319458,226.7162628z M172.6330719,251.4090729h73.2639923v9.9999847    h-73.2639923V251.4090729z M245.8970642,309.2357483h-73.2639923v-10h73.2639923V309.2357483z M261.1605225,285.3247986    H157.3690643v-10h103.7914581V285.3247986z" fill="#FFFFFF"/><path d="M363.7893372,152.9472046H241.6810608c-6.743988,0-12.2111969,5.4661255-12.2111969,12.2106628v51.5583954    h40.848526c12.2458801,0,22.211731,9.9664001,22.211731,22.212265v20.3141479h14.915741l39.5776062,26.0394592    l0.2298584-26.0394592h16.5360107c6.7434692,0,12.210144-5.4677429,12.210144-12.2112122v-81.8735962    C375.9994812,158.4133301,370.5328064,152.9472046,363.7893372,152.9472046z M339.366394,235.4618683h-38.7258606v-10h38.7258606    V235.4618683z M354.6298828,211.5503998H250.8383942v-10h103.7914886V211.5503998z M354.6298828,187.6394653H250.8383942v-10    h103.7914886V187.6394653z" fill="#FFFFFF"/></g></g></svg>

<?xml version="1.0" encoding="UTF-8" standalone="no"?>
<!DOCTYPE svg PUBLIC "-//W3C//DTD SVG 1.1//EN" "http://www.w3.org/Graphics/SVG/1.1/DTD/svg11.dtd">
<svg width="100%" height="100%" viewBox="0 0 512 512" version="1.1" xmlns="http://www.w3.org/2000/svg" xmlns:xlink="http://www.w3.org/1999/xlink" xml:space="preserve" xmlns:serif="http://www.serif.com/" style="fill-rule:evenodd;clip-rule:evenodd;stroke-linejoin:round;stroke-miterlimit:2;">
    <g>
        <g>
            <circle cx="256" cy="256" r="256" style="fill:rgb(255,179,0);"/>
            <path d="M256,469.334C138.369,469.334 42.667,373.631 42.667,256.001C42.667,138.369 138.369,42.667 256,42.667C373.636,42.667 469.333,138.369 469.333,256.001C469.333,373.631 373.636,469.334 256,469.334Z" style="fill:rgb(255,179,0);fill-rule:nonzero;"/>
        </g>
        <g>
            <path d="M278.319,234.716L156.211,234.716C149.467,234.716 144,240.184 144,246.929L144,328.802C144,335.545 149.467,341.013 156.211,341.013L172.747,341.013L172.977,367.053L212.555,341.013L278.319,341.013C285.063,341.013 290.53,335.545 290.53,328.802L290.53,246.929C290.53,240.184 285.063,234.716 278.319,234.716ZM180.633,259.409L253.897,259.409L253.897,269.409L180.633,269.409L180.633,259.409ZM253.897,317.236L180.633,317.236L180.633,307.236L253.897,307.236L253.897,317.236ZM269.161,293.325L165.369,293.325L165.369,283.325L269.161,283.325L269.161,293.325Z" style="fill-opacity:0.3;fill-rule:nonzero;"/>
            <path d="M371.789,160.947L249.681,160.947C242.937,160.947 237.47,166.413 237.47,173.158L237.47,224.716L278.318,224.716C290.564,224.716 300.53,234.683 300.53,246.929L300.53,267.243L315.446,267.243L355.023,293.282L355.253,267.243L371.789,267.243C378.533,267.243 383.999,261.775 383.999,255.031L383.999,173.158C383.999,166.413 378.533,160.947 371.789,160.947ZM347.366,243.462L308.641,243.462L308.641,233.462L347.366,233.462L347.366,243.462ZM362.63,219.55L258.838,219.55L258.838,209.55L362.63,209.55L362.63,219.55ZM362.63,195.639L258.838,195.639L258.838,185.639L362.63,185.639L362.63,195.639Z" style="fill-opacity:0.3;fill-rule:nonzero;"/>
        </g>
        <g>
            <path d="M270.319,226.716L148.211,226.716C141.467,226.716 136,232.184 136,238.929L136,320.802C136,327.545 141.467,333.013 148.211,333.013L164.747,333.013L164.977,359.053L204.555,333.013L270.319,333.013C277.063,333.013 282.53,327.545 282.53,320.802L282.53,238.929C282.53,232.184 277.063,226.716 270.319,226.716ZM172.633,251.409L245.897,251.409L245.897,261.409L172.633,261.409L172.633,251.409ZM245.897,309.236L172.633,309.236L172.633,299.236L245.897,299.236L245.897,309.236ZM261.161,285.325L157.369,285.325L157.369,275.325L261.161,275.325L261.161,285.325Z" style="fill:white;fill-rule:nonzero;"/>
            <path d="M363.789,152.947L241.681,152.947C234.937,152.947 229.47,158.413 229.47,165.158L229.47,216.716L270.318,216.716C282.564,216.716 292.53,226.683 292.53,238.929L292.53,259.243L307.446,259.243L347.023,285.282L347.253,259.243L363.789,259.243C370.533,259.243 375.999,253.775 375.999,247.031L375.999,165.158C375.999,158.413 370.533,152.947 363.789,152.947ZM339.366,235.462L300.641,235.462L300.641,225.462L339.366,225.462L339.366,235.462ZM354.63,211.55L250.838,211.55L250.838,201.55L354.63,201.55L354.63,211.55ZM354.63,187.639L250.838,187.639L250.838,177.639L354.63,177.639L354.63,187.639Z" style="fill:white;fill-rule:nonzero;"/>
        </g>
    </g>
</svg>
